img/svg/key.svg

<svg width="20" height="20" viewBox="0 0 20 20" fill="none" xmlns="http://www.w3.org/2000/svg">
  <path d="M7.5002 7.49977H7.60117M15.0009 18L9.4236 12.502C8.3443 12.9202 7.05478 12.756 5.85685 12.4055C3.00389 11.5709 1.37744 8.61445 2.22407 5.80204C3.07069 2.98963 6.06979 1.38629 8.92275 2.22088C11.7757 3.05548 13.4021 6.01196 12.5555 8.82437L12.4227 9.54548L18 15.0435V18H15.0009Z" stroke="#F2F4F6" stroke-width="1.5" stroke-linecap="round" stroke-linejoin="round" />
</svg>

<svg width="20" height="20" viewBox="0 0 20 20" fill="none" xmlns="http://www.w3.org/2000/svg"><path d="M7.5 7.5h.101m7.4 10.5l-5.577-5.498c-1.08.418-2.37.254-3.567-.097-2.853-.834-4.48-3.79-3.633-6.603.847-2.812 3.846-4.416 6.699-3.581 2.853.834 4.48 3.791 3.633 6.603l-.133.721L18 15.043V18h-3z" stroke="#F2F4F6" stroke-width="1.5" stroke-linecap="round" stroke-linejoin="round"/></svg>
